X:1
T:Title
%%score ( 1 2 ) ( 3 4 )
L:1/8
Q:1/4=107
M:4/4
K:D
V:1 treble nm="Grand Piano, Soprano"
V:2 treble 
V:3 bass nm="Choir Pad, Eugene, 86.86.86 D"
V:4 bass 
V:1
 [DF][EG] [FA]2 [FA]2 [FA][EG] | [DF]2 [DB]2 [GB]2 dc | [GB]2 [FA]2 [GB]2 [FA]2 | [DF]2 [CE]6 | %4
w: By~A.~G.~Little,~1878 * * * * *||||
 [DF][EG] [FA]2 [FA]2 [FA][EG] | [DF]2 [DB]2 [Dc]2 [Dd]2 | [GB]2 [FA]2 [DF]2 [DF]2 | [CE]2 D6 | %8
w: ||||
 [DF]2 [CE]2 [CE]2 [EG][DF] | [CE]2 [DF]2 [EG]2 [FA]2 | [FA]2 [GB]2 [Gd]2 [^Gc]2 | [^GB]2 A6 | %12
w: ||||
 [DF][EG] [FA]2 [FA]2 [Fd]2 | [FA]2 [Ac]2 [GB]2 [GB]2 | [GB]2 [FA]2 [DF]2 [DF]2 | [CE]2 D6 | %16
w: ||||
 [DF]2 [CE]2 [CE][DF] [EG]2 | [CE]2 [DF]2 [GB]2 [FA]2 | [FA]2 [Fd]2 [FA]2 [DF]2 | D2 [CE]6 | %20
w: ||||
 .A2 z2 z4 | [Fd]2 [GB]2 [Gd]2 [FA]2 | [DB]2 [DA]2 [DF]2 [DF]2 | [CE]2 D6- | D2 z2 z4 |] %25
w: |||||
V:2
 x8 | z4 z2 G2 | x8 | x8 | x8 | x8 | x8 | x8 | x8 | x8 | x8 | x8 | x8 | x8 | x8 | x8 | x8 | x8 | %18
 x8 | x8 | C-[CG] [DF]2 [DF][EG] [FA]2 | x8 | x8 | x8 | x8 |] %25
V:3
 [D,A,]2 [D,D]2 [D,D]2 [D,D]2 | z4 z2 .B,2 | [G,D]2 [D,D]2 [D,D]2 [D,D]2 | [A,,A,]2 [A,,G,]6 | %4
 [D,A,]2 [D,D]2 [D,D]2 [D,D]2 | [D,A,]2 G,2 [G,A,]2 [G,B,]2 | [G,D]2 [A,D]2 A,2 [A,,A,]2 | %7
 [A,,G,]2 [D,F,]6 | [D,A,]2 [A,,A,]2 [A,,A,]2 [A,,A,]2 | [A,,A,]2 [D,A,]2 [D,D]2 [D,D]2 | %10
 [D,D]2 [G,D]2 [G,B,]2 [E,E]2 | [E,D]2 [A,C]6 | [D,D]2 [D,D]2 [D,D]2 [D,D]2 | %13
 [D,D]2 [G,D]2 [G,D]2 [G,D]2 | [G,D]2 [A,D]2 A,2 [A,,A,]2 | [A,,A,]2 [D,F,]6 | %16
 [F,A,]2 [A,,A,]2 [A,,A,]2 [A,,A,]2 | [A,,A,]2 [D,A,]2 [D,D]2 [D,D]2 | %18
 [D,D]2 [D,D]2 [D,D]2 [D,A,]2 | [B,,^G,]2 [A,,A,]6 | [A,,A,]2 [D,A,]2 [D,A,]2 [D,D]2 | %21
 [D,D]2 [G,D]2 [G,B,]2 [D,D]2 | [G,D]2 [F,D]2 [D,A,]2 A,2 | [A,,G,]2 [D,F,]6- | [D,F,]2 z2 z4 |] %25
V:4
 x8 | [D,A,]2 G,2 G,2 G,-[G,C] | x8 | x8 | x8 | x8 | x8 | x8 | x8 | x8 | x8 | x8 | x8 | x8 | x8 | %15
 x8 | x8 | x8 | x8 | x8 | x8 | x8 | x8 | x8 | x8 |] %25

